dist/images/svg_sprite/pen_hand.svg

<svg width="50" height="47" viewBox="0 0 50 47" fill="none" xmlns="http://www.w3.org/2000/svg">
<path d="M36.5729 18.3709V21.7277H34.2324C33.7357 21.7298 33.2494 21.5835 32.8359 21.3081L31.8414 20.6451L45.3222 7.16352C46.9612 5.52488 46.9612 2.86798 45.3226 1.22934C43.684 -0.409711 41.0271 -0.409711 39.3884 1.22893L20.5066 20.1108V20.0493H15.5931C13.2169 20.0551 10.9808 21.1729 9.55075 23.0705L3.24081 31.4833C1.99718 33.1564 2.16314 35.4875 3.63132 36.9676L3.63951 36.9758L2.96832 37.6474L0 46.5519L8.90455 43.5836L10.6903 41.7979C11.0218 42.8366 11.9851 43.5431 13.0755 43.5467H25.1119C26.2252 43.5496 27.2935 43.1071 28.0786 42.3175L29.4701 40.928C29.943 40.4567 30.5826 40.1916 31.2497 40.19H36.5729V43.5467H50V18.3709H36.5729ZM14.6986 35.4166C12.8465 35.9932 11.3963 37.4433 10.8198 39.2955L8.44889 41.6663L7.26058 40.478L37.6084 10.1302L38.7926 11.3144L14.6986 35.4166ZM20.6283 31.8587V34.3156C20.6283 34.7791 20.2525 35.1548 19.7891 35.1548H17.3334L20.6283 31.8587ZM40.5759 2.4156C41.2102 1.77104 42.1416 1.51617 43.0156 1.74769C43.8897 1.97961 44.5723 2.66228 44.8038 3.53671C45.0354 4.41074 44.7805 5.34212 44.1355 5.97603L42.3559 7.75686L38.7951 4.19643L40.5759 2.4156ZM41.1693 8.94353L39.9834 10.1302L36.4226 6.56936L37.6084 5.38269L41.1693 8.94353ZM36.4217 8.94353L6.07391 39.2914L4.8856 38.1031L35.2379 7.75931L36.4217 8.94353ZM4.81799 35.7809C3.93741 34.8926 3.83784 33.494 4.5836 32.4897L10.8935 24.0777C12.006 22.6021 13.7451 21.7326 15.5931 21.7277H18.8921L4.82618 35.7895L4.81799 35.7809ZM4.06771 39.6581L6.89384 42.4855L2.65362 43.8983L4.06771 39.6581ZM31.2497 38.5116C30.1364 38.5091 29.0686 38.9517 28.2834 39.7413L26.8919 41.1308C26.419 41.6016 25.7794 41.8667 25.1119 41.8684H13.0755C12.6121 41.8684 12.2363 41.4926 12.2363 41.0292C12.2392 38.7132 14.1159 36.8361 16.4323 36.8332H19.7891C21.1794 36.8332 22.3067 35.7063 22.3067 34.3156V30.1803L30.6314 21.8519L31.9045 22.7013C32.5933 23.1619 33.4038 23.4073 34.2324 23.4061H36.5729V38.5116H31.2497ZM48.3217 41.8684H38.2513V20.0493H48.3217V41.8684Z" fill="#4054B2"/>
</svg>

<svg width="50" height="47" fill="none" xmlns="http://www.w3.org/2000/svg"><path d="M36.573 18.37v3.358h-2.34a2.5 2.5 0 0 1-1.397-.42l-.995-.663L45.322 7.164a4.196 4.196 0 1 0-5.934-5.935L20.507 20.11v-.062h-4.914a7.589 7.589 0 0 0-6.042 3.021l-6.31 8.413a4.216 4.216 0 0 0 .39 5.485l.009.008-.672.671L0 46.552l8.905-2.968 1.785-1.786a2.512 2.512 0 0 0 2.386 1.749h12.036a4.168 4.168 0 0 0 2.967-1.23l1.391-1.389a2.53 2.53 0 0 1 1.78-.738h5.323v3.357H50V18.37H36.573zM14.699 35.418a5.898 5.898 0 0 0-3.88 3.878l-2.37 2.371-1.188-1.188L37.608 10.13l1.185 1.184-24.094 24.103zm5.93-3.558v2.457a.84.84 0 0 1-.84.839h-2.456l3.295-3.296zM40.575 2.416a2.518 2.518 0 1 1 3.56 3.56l-1.78 1.78-3.56-3.56 1.78-1.78zm.593 6.528l-1.186 1.186-3.56-3.56 1.185-1.187 3.561 3.56zm-4.747 0L6.074 39.29l-1.188-1.188L35.238 7.76l1.184 1.185zM4.818 35.78a2.531 2.531 0 0 1-.234-3.291l6.31-8.412a5.905 5.905 0 0 1 4.7-2.35h3.298L4.826 35.789l-.008-.008zm-.75 3.877l2.826 2.828-4.24 1.412 1.414-4.24zm27.182-1.146a4.17 4.17 0 0 0-2.967 1.23l-1.391 1.389a2.532 2.532 0 0 1-1.78.737H13.076a.84.84 0 0 1-.84-.839 4.201 4.201 0 0 1 4.196-4.196h3.357a2.518 2.518 0 0 0 2.518-2.517V30.18l8.324-8.328 1.273.85c.69.46 1.5.705 2.328.704h2.34v15.106H31.25zm17.072 3.356h-10.07V20.05h10.07v21.82z" fill="#4054B2"/></svg>
